tipitek/img/partners-tree.svg

<svg width="424" height="342" fill="none" xmlns="http://www.w3.org/2000/svg"><path d="M209 90.5V107m0 0h99v34m-99-34v34m0-34h-96.5v34M116 227v25.5h-13.5m-71 20.5v-20.5h71m0 0V273M213.5 228.5V252m0 0H175v21.5m38.5-21.5H248v21.5M309.5 226.5v25h13m68 22.5v-22.5h-68m0 0V274" stroke="#26374C" stroke-width="3" stroke-linecap="round" stroke-dasharray="13 13"/><rect x="168" width="88" height="88" rx="12" fill="#30CBFF" fill-opacity=".5"/><path d="M212 50.348c8.677 0 16 1.41 16 6.85C228 62.64 220.629 64 212 64c-8.675 0-16-1.41-16-6.85 0-5.442 7.371-6.802 16-6.802zM212 24a10.547 10.547 0 0 1 10.588 10.582c0 5.874-4.71 10.584-10.588 10.584a10.55 10.55 0 0 1-10.588-10.584A10.548 10.548 0 0 1 212 24z" fill="#009ED3"/><rect x="176" y="152" width="72" height="72" rx="8" fill="#E65069" fill-opacity=".1"/><path d="M211.638 192.83c7.099 0 13.091 1.154 13.091 5.605 0 4.452-6.031 5.565-13.091 5.565-7.098 0-13.091-1.154-13.091-5.605 0-4.452 6.03-5.565 13.091-5.565zm0-21.557a8.63 8.63 0 0 1 8.663 8.658 8.631 8.631 0 0 1-8.663 8.66 8.632 8.632 0 0 1-8.663-8.66 8.63 8.63 0 0 1 8.663-8.658z" fill="#E65069"/><rect x="80" y="152" width="72" height="72" rx="8" fill="#E65069" fill-opacity=".1"/><path d="M115.638 192.83c7.099 0 13.091 1.154 13.091 5.605 0 4.452-6.031 5.565-13.091 5.565-7.098 0-13.091-1.154-13.091-5.605 0-4.452 6.03-5.565 13.091-5.565zm0-21.557a8.63 8.63 0 0 1 8.663 8.658 8.631 8.631 0 0 1-8.663 8.66 8.632 8.632 0 0 1-8.663-8.66 8.63 8.63 0 0 1 8.663-8.658z" fill="#E65069"/><rect y="278" width="64" height="64" rx="7.111" fill="#E6AA12" fill-opacity=".1"/><path d="M31.68 314.293c6.31 0 11.636 1.026 11.636 4.982 0 3.958-5.36 4.947-11.637 4.947-6.309 0-11.636-1.025-11.636-4.982 0-3.958 5.36-4.947 11.636-4.947zm0-19.162a7.67 7.67 0 0 1 7.7 7.696 7.672 7.672 0 0 1-7.7 7.698 7.673 7.673 0 0 1-7.701-7.698 7.671 7.671 0 0 1 7.7-7.696z" fill="#E6AA12"/><rect x="144" y="278" width="64" height="64" rx="7.111" fill="#E6AA12" fill-opacity=".1"/><path d="M175.679 314.293c6.311 0 11.637 1.026 11.637 4.982 0 3.958-5.361 4.947-11.637 4.947-6.309 0-11.636-1.025-11.636-4.982 0-3.958 5.361-4.947 11.636-4.947zm0-19.162a7.67 7.67 0 0 1 7.701 7.696 7.673 7.673 0 0 1-7.701 7.698 7.673 7.673 0 0 1-7.7-7.698 7.671 7.671 0 0 1 7.7-7.696z" fill="#E6AA12"/><rect x="288" y="278" width="64" height="64" rx="7.111" fill="#E6AA12" fill-opacity=".1"/><path d="M319.679 314.293c6.311 0 11.637 1.026 11.637 4.982 0 3.958-5.361 4.947-11.637 4.947-6.309 0-11.636-1.025-11.636-4.982 0-3.958 5.361-4.947 11.636-4.947zm0-19.162a7.67 7.67 0 0 1 7.701 7.696 7.673 7.673 0 0 1-7.701 7.698 7.673 7.673 0 0 1-7.7-7.698 7.671 7.671 0 0 1 7.7-7.696z" fill="#E6AA12"/><rect x="72" y="278" width="64" height="64" rx="7.111" fill="#E6AA12" fill-opacity=".1"/><path d="M103.679 314.293c6.311 0 11.637 1.026 11.637 4.982 0 3.958-5.361 4.947-11.637 4.947-6.309 0-11.636-1.025-11.636-4.982 0-3.958 5.36-4.947 11.636-4.947zm0-19.162a7.67 7.67 0 0 1 7.701 7.696 7.673 7.673 0 0 1-7.701 7.698 7.673 7.673 0 0 1-7.7-7.698 7.671 7.671 0 0 1 7.7-7.696z" fill="#E6AA12"/><rect x="216" y="278" width="64" height="64" rx="7.111" fill="#E6AA12" fill-opacity=".1"/><path d="M247.679 314.293c6.311 0 11.637 1.026 11.637 4.982 0 3.958-5.361 4.947-11.637 4.947-6.309 0-11.636-1.025-11.636-4.982 0-3.958 5.361-4.947 11.636-4.947zm0-19.162a7.67 7.67 0 0 1 7.701 7.696 7.673 7.673 0 0 1-7.701 7.698 7.673 7.673 0 0 1-7.7-7.698 7.671 7.671 0 0 1 7.7-7.696z" fill="#E6AA12"/><rect x="360" y="278" width="64" height="64" rx="7.111" fill="#E6AA12" fill-opacity=".1"/><path d="M391.679 314.293c6.311 0 11.637 1.026 11.637 4.982 0 3.958-5.361 4.947-11.637 4.947-6.309 0-11.636-1.025-11.636-4.982 0-3.958 5.361-4.947 11.636-4.947zm0-19.162a7.67 7.67 0 0 1 7.701 7.696 7.673 7.673 0 0 1-7.701 7.698 7.673 7.673 0 0 1-7.7-7.698 7.671 7.671 0 0 1 7.7-7.696z" fill="#E6AA12"/><rect x="272" y="152" width="72" height="72" rx="8" fill="#E65069" fill-opacity=".1"/><path d="M307.636 192.83c7.099 0 13.091 1.154 13.091 5.605 0 4.452-6.031 5.565-13.091 5.565-7.098 0-13.091-1.154-13.091-5.605 0-4.452 6.031-5.565 13.091-5.565zm0-21.557a8.63 8.63 0 0 1 8.663 8.658 8.631 8.631 0 0 1-8.663 8.66 8.632 8.632 0 0 1-8.663-8.66 8.63 8.63 0 0 1 8.663-8.658z" fill="#E65069"/></svg>

<svg width="424" height="342" viewBox="0 0 424 342" fill="none" xmlns="http://www.w3.org/2000/svg">
<path d="M209 90.5V107M209 107H308V141M209 107V141M209 107H112.5V141" stroke="#26374C" stroke-width="3" stroke-linecap="round" stroke-dasharray="13 13"/>
<path d="M116 227V252.5H102.5M31.5 273V252.5H102.5M102.5 252.5V273" stroke="#26374C" stroke-width="3" stroke-linecap="round" stroke-dasharray="13 13"/>
<path d="M213.5 228.5V252M213.5 252H175V273.5M213.5 252H248V273.5" stroke="#26374C" stroke-width="3" stroke-linecap="round" stroke-dasharray="13 13"/>
<path d="M309.5 226.5V251.5H322.5M390.5 274V251.5H322.5M322.5 251.5V274" stroke="#26374C" stroke-width="3" stroke-linecap="round" stroke-dasharray="13 13"/>
<rect x="168" width="88" height="88" rx="12" fill="#30CBFF" fill-opacity="0.5"/>
<path d="M212 50.3479C220.677 50.3479 228 51.7579 228 57.1979C228 62.64 220.629 64 212 64C203.325 64 196 62.59 196 57.1499C196 51.7079 203.371 50.3479 212 50.3479ZM212 24C217.878 24 222.588 28.708 222.588 34.5821C222.588 40.4562 217.878 45.1662 212 45.1662C206.124 45.1662 201.412 40.4562 201.412 34.5821C201.412 28.708 206.124 24 212 24Z" fill="#009ED3"/>
<rect x="176" y="152" width="72" height="72" rx="8" fill="#E65069" fill-opacity="0.1"/>
<path d="M211.638 192.83C218.737 192.83 224.729 193.984 224.729 198.435C224.729 202.887 218.698 204 211.638 204C204.54 204 198.547 202.846 198.547 198.395C198.547 193.943 204.577 192.83 211.638 192.83ZM211.638 171.273C216.447 171.273 220.301 175.125 220.301 179.931C220.301 184.737 216.447 188.591 211.638 188.591C206.83 188.591 202.975 184.737 202.975 179.931C202.975 175.125 206.83 171.273 211.638 171.273Z" fill="#E65069"/>
<rect x="80" y="152" width="72" height="72" rx="8" fill="#E65069" fill-opacity="0.1"/>
<path d="M115.638 192.83C122.737 192.83 128.729 193.984 128.729 198.435C128.729 202.887 122.698 204 115.638 204C108.54 204 102.547 202.846 102.547 198.395C102.547 193.943 108.577 192.83 115.638 192.83ZM115.638 171.273C120.447 171.273 124.301 175.125 124.301 179.931C124.301 184.737 120.447 188.591 115.638 188.591C110.83 188.591 106.975 184.737 106.975 179.931C106.975 175.125 110.83 171.273 115.638 171.273Z" fill="#E65069"/>
<rect y="278" width="64" height="64" rx="7.11111" fill="#E6AA12" fill-opacity="0.1"/>
<path d="M31.6793 314.293C37.9901 314.293 43.3157 315.319 43.3157 319.275C43.3157 323.233 37.9551 324.222 31.6793 324.222C25.3701 324.222 20.043 323.197 20.043 319.24C20.043 315.282 25.4035 314.293 31.6793 314.293ZM31.6793 295.131C35.9544 295.131 39.3797 298.555 39.3797 302.827C39.3797 307.099 35.9544 310.525 31.6793 310.525C27.4057 310.525 23.979 307.099 23.979 302.827C23.979 298.555 27.4057 295.131 31.6793 295.131Z" fill="#E6AA12"/>
<rect x="144" y="278" width="64" height="64" rx="7.11111" fill="#E6AA12" fill-opacity="0.1"/>
<path d="M175.679 314.293C181.99 314.293 187.316 315.319 187.316 319.275C187.316 323.233 181.955 324.222 175.679 324.222C169.37 324.222 164.043 323.197 164.043 319.24C164.043 315.282 169.404 314.293 175.679 314.293ZM175.679 295.131C179.954 295.131 183.38 298.555 183.38 302.827C183.38 307.099 179.954 310.525 175.679 310.525C171.406 310.525 167.979 307.099 167.979 302.827C167.979 298.555 171.406 295.131 175.679 295.131Z" fill="#E6AA12"/>
<rect x="288" y="278" width="64" height="64" rx="7.11111" fill="#E6AA12" fill-opacity="0.1"/>
<path d="M319.679 314.293C325.99 314.293 331.316 315.319 331.316 319.275C331.316 323.233 325.955 324.222 319.679 324.222C313.37 324.222 308.043 323.197 308.043 319.24C308.043 315.282 313.404 314.293 319.679 314.293ZM319.679 295.131C323.954 295.131 327.38 298.555 327.38 302.827C327.38 307.099 323.954 310.525 319.679 310.525C315.406 310.525 311.979 307.099 311.979 302.827C311.979 298.555 315.406 295.131 319.679 295.131Z" fill="#E6AA12"/>
<rect x="72" y="278" width="64" height="64" rx="7.11111" fill="#E6AA12" fill-opacity="0.1"/>
<path d="M103.679 314.293C109.99 314.293 115.316 315.319 115.316 319.275C115.316 323.233 109.955 324.222 103.679 324.222C97.3701 324.222 92.043 323.197 92.043 319.24C92.043 315.282 97.4035 314.293 103.679 314.293ZM103.679 295.131C107.954 295.131 111.38 298.555 111.38 302.827C111.38 307.099 107.954 310.525 103.679 310.525C99.4057 310.525 95.979 307.099 95.979 302.827C95.979 298.555 99.4057 295.131 103.679 295.131Z" fill="#E6AA12"/>
<rect x="216" y="278" width="64" height="64" rx="7.11111" fill="#E6AA12" fill-opacity="0.1"/>
<path d="M247.679 314.293C253.99 314.293 259.316 315.319 259.316 319.275C259.316 323.233 253.955 324.222 247.679 324.222C241.37 324.222 236.043 323.197 236.043 319.24C236.043 315.282 241.404 314.293 247.679 314.293ZM247.679 295.131C251.954 295.131 255.38 298.555 255.38 302.827C255.38 307.099 251.954 310.525 247.679 310.525C243.406 310.525 239.979 307.099 239.979 302.827C239.979 298.555 243.406 295.131 247.679 295.131Z" fill="#E6AA12"/>
<rect x="360" y="278" width="64" height="64" rx="7.11111" fill="#E6AA12" fill-opacity="0.1"/>
<path d="M391.679 314.293C397.99 314.293 403.316 315.319 403.316 319.275C403.316 323.233 397.955 324.222 391.679 324.222C385.37 324.222 380.043 323.197 380.043 319.24C380.043 315.282 385.404 314.293 391.679 314.293ZM391.679 295.131C395.954 295.131 399.38 298.555 399.38 302.827C399.38 307.099 395.954 310.525 391.679 310.525C387.406 310.525 383.979 307.099 383.979 302.827C383.979 298.555 387.406 295.131 391.679 295.131Z" fill="#E6AA12"/>
<rect x="272" y="152" width="72" height="72" rx="8" fill="#E65069" fill-opacity="0.1"/>
<path d="M307.636 192.83C314.735 192.83 320.727 193.984 320.727 198.435C320.727 202.887 314.696 204 307.636 204C300.538 204 294.545 202.846 294.545 198.395C294.545 193.943 300.576 192.83 307.636 192.83ZM307.636 171.273C312.445 171.273 316.299 175.125 316.299 179.931C316.299 184.737 312.445 188.591 307.636 188.591C302.828 188.591 298.973 184.737 298.973 179.931C298.973 175.125 302.828 171.273 307.636 171.273Z" fill="#E65069"/>
</svg>
